priv/static/svgs/icons_new/shop-wallet.svg

<svg width="32" height="32" viewBox="0 0 32 32" fill="none" xmlns="http://www.w3.org/2000/svg">
<path d="M6.5 10.5H6H6.5ZM6.5 21.5H7H6.5ZM21.5 25.5V25V25.5ZM10.5 25.5V26V25.5ZM25.5 10.5H25H25.5ZM25.5 21.5H26H25.5ZM21.5 6.50002L21.5 7.00002L21.5 6.50002ZM10.5 6.5L10.5 7L10.5 6.5ZM25.5 19.6538V20.1538C25.7761 20.1538 26 19.93 26 19.6538H25.5ZM19.6538 19.6538V20.1538V19.6538ZM25.5 12.3462H26V11.8462L25.5 11.8462V12.3462ZM19.6538 12.3462L19.6538 11.8462L19.6538 12.3462ZM19.8846 16C19.8846 16.1274 19.7813 16.2308 19.6538 16.2308V17.2308C20.3336 17.2308 20.8846 16.6797 20.8846 16H19.8846ZM19.6538 16.2308C19.5264 16.2308 19.4231 16.1274 19.4231 16H18.4231C18.4231 16.6797 18.9741 17.2308 19.6538 17.2308V16.2308ZM19.4231 16C19.4231 15.8725 19.5264 15.7692 19.6538 15.7692V14.7692C18.9741 14.7692 18.4231 15.3203 18.4231 16H19.4231ZM19.6538 15.7692C19.7813 15.7692 19.8846 15.8725 19.8846 16H20.8846C20.8846 15.3203 20.3336 14.7692 19.6538 14.7692V15.7692ZM6 10.5L6 21.5H7L7 10.5H6ZM21.5 25L10.5 25V26L21.5 26V25ZM25 10.5V21.5H26V10.5H25ZM21.5 6.00002L10.5 6L10.5 7L21.5 7.00002L21.5 6.00002ZM26 10.5C26 8.01475 23.9853 6.00003 21.5 6.00002L21.5 7.00002C23.433 7.00003 25 8.56703 25 10.5H26ZM7 10.5C7 8.567 8.56701 7 10.5 7L10.5 6C8.01473 5.99999 6 8.01471 6 10.5H7ZM6 21.5C6 23.9853 8.01472 26 10.5 26V25C8.567 25 7 23.433 7 21.5H6ZM21.5 26C23.9853 26 26 23.9853 26 21.5H25C25 23.433 23.433 25 21.5 25V26ZM25.5 19.1538L19.6538 19.1538V20.1538L25.5 20.1538V19.1538ZM25 12.3462V19.6538H26V12.3462H25ZM25.5 11.8462L19.6538 11.8462L19.6538 12.8462L25.5 12.8462V11.8462ZM16.5 16C16.5 14.2582 17.912 12.8461 19.6538 12.8462L19.6538 11.8462C17.3597 11.8461 15.5 13.7059 15.5 16H16.5ZM15.5 16C15.5 18.2941 17.3597 20.1538 19.6538 20.1538V19.1538C17.912 19.1538 16.5 17.7418 16.5 16H15.5Z" fill="black"/>
</svg>

<svg width="32" height="32" viewBox="0 0 32 32" fill="none" xmlns="http://www.w3.org/2000/svg">
  <symbol id="item" viewBox="0 0 32 32"  fill="none">
    <path d="M6.5 10.5H6h.5Zm0 11H7h-.5Zm15 4V25v.5Zm-11 0v.5-.5Zm15-15H25h.5Zm0 11h.5-.5Zm-4-15V7v-.5Zm-11 0V7v-.5Zm15 13.154v.5a.5.5 0 0 0 .5-.5h-.5Zm-5.846 0v.5-.5Zm5.846-7.308h.5v-.5h-.5v.5Zm-5.846 0v-.5.5Zm.23 3.654a.23.23 0 0 1-.23.23v1c.68 0 1.23-.55 1.23-1.23h-1Zm-.23.23a.23.23 0 0 1-.23-.23h-1c0 .68.55 1.23 1.23 1.23v-1Zm-.23-.23a.23.23 0 0 1 .23-.23v-1c-.68 0-1.23.55-1.23 1.23h1Zm.23-.23a.23.23 0 0 1 .23.23h1c0-.68-.55-1.23-1.23-1.23v1ZM6 10.5v11h1v-11H6ZM21.5 25h-11v1h11v-1ZM25 10.5v11h1v-11h-1ZM21.5 6h-11v1h11V6Zm4.5 4.5A4.5 4.5 0 0 0 21.5 6v1a3.5 3.5 0 0 1 3.5 3.5h1Zm-19 0A3.5 3.5 0 0 1 10.5 7V6A4.5 4.5 0 0 0 6 10.5h1Zm-1 11a4.5 4.5 0 0 0 4.5 4.5v-1A3.5 3.5 0 0 1 7 21.5H6ZM21.5 26a4.5 4.5 0 0 0 4.5-4.5h-1a3.5 3.5 0 0 1-3.5 3.5v1Zm4-6.846h-5.846v1H25.5v-1Zm-.5-6.808v7.308h1v-7.308h-1Zm.5-.5h-5.846v1H25.5v-1ZM16.5 16a3.154 3.154 0 0 1 3.154-3.154v-1A4.154 4.154 0 0 0 15.5 16h1Zm-1 0a4.154 4.154 0 0 0 4.154 4.154v-1A3.154 3.154 0 0 1 16.5 16h-1Z" fill="currentColor"/>
  </symbol>
</svg>
